X: 36311
T: Seamus O'Shanahan's
R: jig
M: 6/8
K: Bminor
|:F2 B Bcd|cAA Ace|fed cde|d3 cAG|
F3 Bcd|cAA Ace|fed cde|1 dBB BAG:|2 dBB Bcd||
|:e2 g gag|fdB Bed|c2 e edc|dff fdB|
efg gag|fdB Bed|cde dcA|BcB Bcd|
e2 g gag|fdB Bed|c2 e edc|dff fdB|
ega bag|fdB Bed|cde cBA|BcB BAG||

